public/JONES REALTY ICON (2).svg

<svg xmlns="http://www.w3.org/2000/svg" xmlns:xlink="http://www.w3.org/1999/xlink" width="500" zoomAndPan="magnify" viewBox="0 0 375 374.999991" height="500" preserveAspectRatio="xMidYMid meet" version="1.0"><defs><clipPath id="a403bce93a"><path d="M 127.429688 151.070312 L 182.433594 151.070312 L 182.433594 217.160156 L 127.429688 217.160156 Z M 127.429688 151.070312 " clip-rule="nonzero"/></clipPath><clipPath id="79ca55c76a"><path d="M 0.429688 0.0703125 L 55.433594 0.0703125 L 55.433594 66.160156 L 0.429688 66.160156 Z M 0.429688 0.0703125 " clip-rule="nonzero"/></clipPath><clipPath id="69650a2584"><rect x="0" width="56" y="0" height="67"/></clipPath><clipPath id="353fe19f63"><path d="M 127.429688 151.074219 L 182.179688 151.074219 L 182.179688 217.070312 L 127.429688 217.070312 Z M 127.429688 151.074219 " clip-rule="nonzero"/></clipPath><clipPath id="240192ec6b"><path d="M 195.605469 151.070312 L 250.609375 151.070312 L 250.609375 217.160156 L 195.605469 217.160156 Z M 195.605469 151.070312 " clip-rule="nonzero"/></clipPath><clipPath id="ce6a91da03"><path d="M 0.605469 0.0703125 L 55.609375 0.0703125 L 55.609375 66.160156 L 0.605469 66.160156 Z M 0.605469 0.0703125 " clip-rule="nonzero"/></clipPath><clipPath id="ac24e02959"><rect x="0" width="56" y="0" height="67"/></clipPath><clipPath id="ca8e832bc2"><path d="M 195.605469 151.074219 L 250.355469 151.074219 L 250.355469 217.070312 L 195.605469 217.070312 Z M 195.605469 151.074219 " clip-rule="nonzero"/></clipPath><clipPath id="80d18464c2"><path d="M 194.660156 229.382812 L 249.664062 229.382812 L 249.664062 295.472656 L 194.660156 295.472656 Z M 194.660156 229.382812 " clip-rule="nonzero"/></clipPath><clipPath id="ba8fdd6eee"><path d="M 0.660156 0.382812 L 55.664062 0.382812 L 55.664062 66.472656 L 0.660156 66.472656 Z M 0.660156 0.382812 " clip-rule="nonzero"/></clipPath><clipPath id="d4c52e35ec"><rect x="0" width="56" y="0" height="67"/></clipPath><clipPath id="e6e143bcfb"><path d="M 194.660156 229.386719 L 249.410156 229.386719 L 249.410156 295.382812 L 194.660156 295.382812 Z M 194.660156 229.386719 " clip-rule="nonzero"/></clipPath><clipPath id="328385f69b"><path d="M 127.429688 229.382812 L 182.433594 229.382812 L 182.433594 295.472656 L 127.429688 295.472656 Z M 127.429688 229.382812 " clip-rule="nonzero"/></clipPath><clipPath id="8f9b21f93b"><path d="M 0.429688 0.382812 L 55.433594 0.382812 L 55.433594 66.472656 L 0.429688 66.472656 Z M 0.429688 0.382812 " clip-rule="nonzero"/></clipPath><clipPath id="f34849b3e6"><rect x="0" width="56" y="0" height="67"/></clipPath><clipPath id="1cc5b0faf1"><path d="M 127.429688 229.386719 L 182.179688 229.386719 L 182.179688 295.382812 L 127.429688 295.382812 Z M 127.429688 229.386719 " clip-rule="nonzero"/></clipPath></defs><path stroke-linecap="butt" transform="matrix(-0.00742815, -0.749963, 0.749963, -0.00742815, 82.81341, 326.902714)" fill="none" stroke-linejoin="miter" d="M -0.00163108 5.999065 L 234.400522 5.997715 " stroke="#ffffff" stroke-width="12" stroke-opacity="1" stroke-miterlimit="4"/><path stroke-linecap="butt" transform="matrix(-0.749993, -0.00329617, 0.00329617, -0.749993, 294.269457, 328.649568)" fill="none" stroke-linejoin="miter" d="M 0.00023581 6.001565 L 281.560263 5.998513 " stroke="#ffffff" stroke-width="12" stroke-opacity="1" stroke-miterlimit="4"/><path stroke-linecap="butt" transform="matrix(0.53033, -0.53033, 0.53033, 0.53033, 80.682479, 151.505248)" fill="none" stroke-linejoin="miter" d="M -0.0013666 5.999145 L 198.283172 5.999145 " stroke="#ffffff" stroke-width="12" stroke-opacity="1" stroke-miterlimit="4"/><path stroke-linecap="butt" transform="matrix(0.53033, 0.53033, -0.53033, 0.53033, 185.128497, 46.375449)" fill="none" stroke-linejoin="miter" d="M -0.000037569 6.002233 L 198.236624 5.99855 " stroke="#ffffff" stroke-width="12" stroke-opacity="1" stroke-miterlimit="4"/><g clip-path="url(#a403bce93a)"><g transform="matrix(1, 0, 0, 1, 127, 151)"><g clip-path="url(#69650a2584)"><g clip-path="url(#79ca55c76a)"><path fill="#ffffff" d="M 0.429688 0.0703125 L 55.433594 0.0703125 L 55.433594 66.25 L 0.429688 66.25 Z M 0.429688 0.0703125 " fill-opacity="1" fill-rule="nonzero"/></g></g></g></g><g clip-path="url(#353fe19f63)"><path stroke-linecap="butt" transform="matrix(0.75, 0, 0, 0.75, 127.429083, 151.073164)" fill="none" stroke-linejoin="miter" d="M 0.000805557 0.00140569 L 73.328935 0.00140569 L 73.328935 88.10037 L 0.000805557 88.10037 Z M 0.000805557 0.00140569 " stroke="#ffffff" stroke-width="12" stroke-opacity="1" stroke-miterlimit="4"/></g><g clip-path="url(#240192ec6b)"><g transform="matrix(1, 0, 0, 1, 195, 151)"><g clip-path="url(#ac24e02959)"><g clip-path="url(#ce6a91da03)"><path fill="#ffffff" d="M 0.605469 0.0703125 L 55.609375 0.0703125 L 55.609375 66.25 L 0.605469 66.25 Z M 0.605469 0.0703125 " fill-opacity="1" fill-rule="nonzero"/></g></g></g></g><g clip-path="url(#ca8e832bc2)"><path stroke-linecap="butt" transform="matrix(0.75, 0, 0, 0.75, 195.604561, 151.073164)" fill="none" stroke-linejoin="miter" d="M 0.00120999 0.00140569 L 73.32934 0.00140569 L 73.32934 88.10037 L 0.00120999 88.10037 Z M 0.00120999 0.00140569 " stroke="#ffffff" stroke-width="12" stroke-opacity="1" stroke-miterlimit="4"/></g><g clip-path="url(#80d18464c2)"><g transform="matrix(1, 0, 0, 1, 194, 229)"><g clip-path="url(#d4c52e35ec)"><g clip-path="url(#ba8fdd6eee)"><path fill="#ffffff" d="M 0.660156 0.382812 L 55.664062 0.382812 L 55.664062 66.5625 L 0.660156 66.5625 Z M 0.660156 0.382812 " fill-opacity="1" fill-rule="nonzero"/></g></g></g></g><g clip-path="url(#e6e143bcfb)"><path stroke-linecap="butt" transform="matrix(0.75, 0, 0, 0.75, 194.658757, 229.3852)" fill="none" stroke-linejoin="miter" d="M 0.00186524 0.00202482 L 73.329995 0.00202482 L 73.329995 88.100989 L 0.00186524 88.100989 Z M 0.00186524 0.00202482 " stroke="#ffffff" stroke-width="12" stroke-opacity="1" stroke-miterlimit="4"/></g><g clip-path="url(#328385f69b)"><g transform="matrix(1, 0, 0, 1, 127, 229)"><g clip-path="url(#f34849b3e6)"><g clip-path="url(#8f9b21f93b)"><path fill="#ffffff" d="M 0.429688 0.382812 L 55.433594 0.382812 L 55.433594 66.5625 L 0.429688 66.5625 Z M 0.429688 0.382812 " fill-opacity="1" fill-rule="nonzero"/></g></g></g></g><g clip-path="url(#1cc5b0faf1)"><path stroke-linecap="butt" transform="matrix(0.75, 0, 0, 0.75, 127.429083, 229.3852)" fill="none" stroke-linejoin="miter" d="M 0.000805557 0.00202482 L 73.328935 0.00202482 L 73.328935 88.100989 L 0.000805557 88.100989 Z M 0.000805557 0.00202482 " stroke="#ffffff" stroke-width="12" stroke-opacity="1" stroke-miterlimit="4"/></g></svg>

<svg xmlns="http://www.w3.org/2000/svg" width="500" height="500" viewBox="0 0 375 375"><defs><clipPath id="a"><path d="M127.43 151.07h55.004v66.09H127.43Zm0 0"/></clipPath><clipPath id="c"><path d="M.43.07h55.004v66.09H.43Zm0 0"/></clipPath><clipPath id="b"><path d="M0 0h56v67H0z"/></clipPath><clipPath id="d"><path d="M127.43 151.074h54.75v65.996h-54.75Zm0 0"/></clipPath><clipPath id="e"><path d="M195.605 151.07h55.004v66.09h-55.004Zm0 0"/></clipPath><clipPath id="g"><path d="M.605.07H55.61v66.09H.605Zm0 0"/></clipPath><clipPath id="f"><path d="M0 0h56v67H0z"/></clipPath><clipPath id="h"><path d="M195.605 151.074h54.75v65.996h-54.75Zm0 0"/></clipPath><clipPath id="i"><path d="M194.66 229.383h55.004v66.09H194.66Zm0 0"/></clipPath><clipPath id="k"><path d="M.66.383h55.004v66.09H.66Zm0 0"/></clipPath><clipPath id="j"><path d="M0 0h56v67H0z"/></clipPath><clipPath id="l"><path d="M194.66 229.387h54.75v65.996h-54.75Zm0 0"/></clipPath><clipPath id="m"><path d="M127.43 229.383h55.004v66.09H127.43Zm0 0"/></clipPath><clipPath id="o"><path d="M.43.383h55.004v66.09H.43Zm0 0"/></clipPath><clipPath id="n"><path d="M0 0h56v67H0z"/></clipPath><clipPath id="p"><path d="M127.43 229.387h54.75v65.996h-54.75Zm0 0"/></clipPath></defs><path fill="none" stroke="#fff" stroke-width="9" d="M87.312 326.86 85.57 151.065m208.72 173.083-211.169-.925m.742-168.536L189.02 49.531m-7.075.028 105.133 105.128"/><g clip-path="url(#a)"><g clip-path="url(#b)" transform="translate(127 151)"><g clip-path="url(#c)"><path fill="#fff" d="M.43.07h55.004v66.18H.43Zm0 0"/></g></g></g><g clip-path="url(#d)"><path fill="none" stroke="#fff" stroke-width="9" d="M127.43 151.074h54.996v66.074H127.43Zm0 0"/></g><g clip-path="url(#e)"><g clip-path="url(#f)" transform="translate(195 151)"><g clip-path="url(#g)"><path fill="#fff" d="M.605.07H55.61v66.18H.605Zm0 0"/></g></g></g><g clip-path="url(#h)"><path fill="none" stroke="#fff" stroke-width="9" d="M195.605 151.074h54.997v66.074h-54.997Zm0 0"/></g><g clip-path="url(#i)"><g clip-path="url(#j)" transform="translate(194 229)"><g clip-path="url(#k)"><path fill="#fff" d="M.66.383h55.004v66.18H.66Zm0 0"/></g></g></g><g clip-path="url(#l)"><path fill="none" stroke="#fff" stroke-width="9" d="M194.66 229.387h54.996v66.074H194.66Zm0 0"/></g><g clip-path="url(#m)"><g clip-path="url(#n)" transform="translate(127 229)"><g clip-path="url(#o)"><path fill="#fff" d="M.43.383h55.004v66.18H.43Zm0 0"/></g></g></g><g clip-path="url(#p)"><path fill="none" stroke="#fff" stroke-width="9" d="M127.43 229.387h54.996v66.074H127.43Zm0 0"/></g></svg>
